!!!!SEGMENT: pl-wtm--r-1627_stefani-jozef--polonez-ze-spiewem.krn
!!!cenid: 18xx:2364
!!!COM: Stefani, Józef
!!!COM-rismid: pe30024097
!!!CDT: 1800/04/16-1876/03/19
!!!CNT: Polish
!!!OTL: Polonez ze śpiewem
!!!PDT:
!!!AGN: Secular; Polonaise
!!!SMS-siglum: PL-Wtm
!!!SMS-shelfmark: R 1627
!!!SMS-shelfwork: W
!!!SMS-variant:
!!!SMS-altvar:
!!!NIFC-rismid: 1001115618
!!!URL-scan: http://repozytorium.nifc.pl/skany/pl-wtm-nut--r1627
!!!ONB-nifc: UWAGA: obsada to Coro S (2), Coro B, pf
!!!OMD: Polonez.
**kern	**kern	**dynam	**kern	**kern	**text
*part4	*part3	*part3	*part2	*part1	*part1
*staff4	*staff3	*	*staff2	*staff1	*staff1
*Iforte	*Iforte	*	*Iempty	*Iempty	*
*I"Fortepian	*I"Fortepian	*	*	*	*
*>[A,B,A,B,C,B,D,E,D,E,F,E,A,B,A,B,G]	*>[A,B,A,B,C,B,D,E,D,E,F,E,A,B,A,B,G]	*>[A,B,A,B,C,B,D,E,D,E,F,E,A,B,A,B,G]	*>[A,B,A,B,C,B,D,E,D,E,F,E,A,B,A,B,G]	*>[A,B,A,B,C,B,D,E,D,E,F,E,A,B,A,B,G]	*>[A,B,A,B,C,B,D,E,D,E,F,E,A,B,A,B,G]
*>A	*>A	*>A	*>A	*>A	*>A
*clefF4	*clefG2	*	*clefF4	*clefG2	*
*k[b-e-]	*k[b-e-]	*	*k[b-e-]	*k[b-e-]	*
*B-:	*B-:	*	*B-:	*B-:	*
*M3/4	*M3/4	*	*M3/4	*M3/4	*
=1	=1	=1	=1	=1	=1
*all\right	*all\right	*	*all\right	*all\right	*
!	!	!LO:DY:rj	!	!	!
8B-\L	8b-\L	f	2.ryy	2.ryy	.
32d\LL	(32dd\LL	.	.	.	.
32c\	32cc\	.	.	.	.
32B-\	32b-\	.	.	.	.
32A\JJJ	32a\JJJ	.	.	.	.
4.G\	4.g/)	.	.	.	.
8F\	8f/	.	.	.	.
=2	=2	=2	=2	=2	=2
8E-\L	8e-/L	.	2.ryy	2.ryy	.
(32G\LL	(32g/LL	.	.	.	.
32F\	32f/	.	.	.	.
32E-\	32e-/	.	.	.	.
32D\JJJ	32d/JJJ	.	.	.	.
4.C/)	4.c/)	.	.	.	.
8BB-/	8B-/	.	.	.	.
=3	=3	=3	=3	=3	=3
8AA/L	8A/L	.	2.ryy	2.ryy	.
8C/J	8c/J	.	.	.	.
4.F\	4.f/	.	.	.	.
8F 8AA/	8e- 8c/	.	.	.	.
=4	=4	=4	=4	=4	=4
*^	*^	*	*	*	*
8FL 8BB-\	4ryy	(16d/LL	8B-\L	.	2.ryy	2.ryy	.
.	.	16e-/)	.	.	.	.	.
8FJ 8E- 8FF\	.	(16c/	8A\J	.	.	.	.
.	.	16d/JJ)	.	.	.	.	.
4F 4D/	4BB-\	8B-/	2ryy	.	.	.	.
.	.	8r	.	.	.	.	.
4r	4ryy	8ryy	.	.	.	.	.
.	.	8f/	.	.	.	.	.
*v	*v	*	*	*	*	*	*
*	*v	*v	*	*	*	*
!!LO:LB:g=original
=5	=5	=5	=5	=5	=5
*>B	*>B	*>B	*>B	*>B	*>B
!LO:TX:a:t=[segno]:problem:znak segno na kresce taktowej	!LO:TX:a:t=[segno]:problem:znak segno na kresce taktowej	!LO:DY:rj	!	!	!
8BB- 8BBB-/	8ddL 8b-'\	p	2.ryy	2.ryy	.
8r	(16ddL 16b-\	.	.	.	.
.	16ee-JJ 16cc\)	.	.	.	.
8F 8D 8BB-/	8ffL 8dd\	.	.	.	.
8r	8eenJ 8cc#X'\	.	.	.	.
.	(8qgg 8qee-X/	.	.	.	.
8F 8D 8BB-/	8ffL 8dd\)	.	.	.	.
8r	8ddJ 8b-'\	.	.	.	.
=6	=6	=6	=6	=6	=6
!LO:TX:t=P:problem:mixed beam	!	!	!	!	!
8FF/L	(16ddLL 16b-\	.	2.ryy	2.ryy	.
.	16cc 16a\	.	.	.	.
8A 8F 8C\	16bn 16g#X\	.	.	.	.
.	16ccJJ 16a\)	.	.	.	.
8A 8F 8C\	4.cc 4.a\	.	.	.	.
8AJ 8F 8C\	.	.	.	.	.
8A 8F 8C\	.	.	.	.	.
8r	8dd 8b-X\	.	.	.	.
=7	=7	=7	=7	=7	=7
8F 8FF/	8ee-L 8cc'\	.	2.ryy	2.ryy	.
8r	(16ee-L 16cc\	.	.	.	.
.	16ffJJ 16dd\)	.	.	.	.
8A 8F 8E- 8C\	8ggL 8ee-\	.	.	.	.
8r	8ff#XJ 8dd\	.	.	.	.
.	(8qaa 8qffn/	.	.	.	.
8A 8F 8E- 8C\	8ggL 8ee-\)	.	.	.	.
8r	8ee-J 8cc'\	.	.	.	.
=8	=8	=8	=8	=8	=8
8BB-L 8BBB-/	(16eenLL 16cc#X\	.	2.ryy	2.ryy	.
.	16ff 16dd\	.	.	.	.
8F 8D 8BB-/	16gg 16ee-X\	.	.	.	.
.	16ffJJ 16dd\)	.	.	.	.
8F 8D 8BB-/	4dd 4b-\	.	.	.	.
8FJ 8D 8BB-/	.	.	.	.	.
8F 8D 8BB-/	(16b-\LL	.	.	.	.
.	32cc#\L	.	.	.	.
.	32dd\	.	.	.	.
8r	32ee-\	.	.	.	.
.	32ff\	.	.	.	.
.	32gg\	.	.	.	.
.	32aa\JJJ)	.	.	.	.
!!LO:LB:g=original
=9	=9	=9	=9	=9	=9
*^	*	*	*	*	*
!	!	!	!LO:DY:rj	!	!	!
8BB-\L	4ryy	8bb-'\L	f	2.ryy	2.ryy	.
8dJ 8B- 8F\	.	(16ddd\L	.	.	.	.
.	.	16ccc\JJ)	.	.	.	.
8D\L	4D/	(16bb-\LL	.	.	.	.
.	.	16aa\)	.	.	.	.
8B-J 8F\	.	16gg'\	.	.	.	.
.	.	16ff'\JJ	.	.	.	.
8BB-\L	4ryy	(16gg\LL	.	.	.	.
.	.	16ff\)	.	.	.	.
8dJ 8B- 8F\	.	16ee-'\	.	.	.	.
.	.	16dd'\JJ	.	.	.	.
=10	=10	=10	=10	=10	=10	=10
4E-/	8E-\L	8cc'\L	.	2.ryy	2.ryy	.
.	8cJ 8G\	(16gg\L	.	.	.	.
.	.	16ff#X\JJ)	.	.	.	.
4C/	8C\L	(16gg\LL	.	.	.	.
.	.	16ffn\)	.	.	.	.
.	8cJ 8G\	16ee-'\	.	.	.	.
.	.	16dd'\JJ	.	.	.	.
4E-/	8E-\L	(16cc/LL	.	.	.	.
.	.	16b-/)	.	.	.	.
.	8cJ 8G 8En\	16a'/	.	.	.	.
.	.	16g'/JJ	.	.	.	.
*v	*v	*	*	*	*	*
=11	=11	=11	=11	=11	=11
8d 8B- 8F\	16f'/LL	.	2.ryy	2.ryy	.
.	(16b-/	.	.	.	.
8r	16a/	.	.	.	.
.	16b-/JJ)	.	.	.	.
*rep	*	*	*	*	*
8d 8B- 8F\	16f'/LL	.	.	.	.
.	(16dd/	.	.	.	.
8r	16cc/	.	.	.	.
.	16dd/JJ)	.	.	.	.
*Xrep	*	*	*	*	*
*rep	*	*	*	*	*
8d 8B- 8F\	16b-'\LL	.	.	.	.
.	(16ff\	.	.	.	.
8r	16een\	.	.	.	.
.	16ff\JJ)	.	.	.	.
*Xrep	*	*	*	*	*
=12	=12	=12	=12	=12	=12
8e-L 8c 8F\	16gg\LL	.	2.ryy	2.ryy	.
.	16ff\	.	.	.	.
8e-J 8c 8F\	16ee-\	.	.	.	.
.	32r	.	.	.	.
.	32cc\JJk	.	.	.	.
8r	(>4cc 4e-/	.	.	.	.
8FL 8FF/	.	.	.	.	.
8B-J 8BB-/	8b- 8d/)	.	.	.	.
!LO:TX:b:t=fine	!	!	!	!	!
8r	8r	.	.	.	.
!!LO:LB:g=original
=13:|!	=13:|!	=13:|!	=13:|!	=13:|!	=13:|!
*>C	*>C	*>C	*>C	*>C	*>C
!	!	!LO:DY:rj	!	!	!
8F 8FF/	8ccL 8a'\	p	8F\	8cc 8a\	Dzień
8c 8A 8F\	(16bnL 16g#X\	.	8F\	(16bnLL 16g#X\	ra-
.	16ccJJ 16a\)	.	.	16cc\JJ)	.
*tremolo	*	*	*	*	*
*2\right	*	*	*	*	*
8cL 8A 8F\	4.ff 4.a\	.	4.F\	4.ff 4.a\	-do-
8c 8A 8F\	.	.	.	.	.
8c 8A 8F\	.	.	.	.	.
8cJ 8A 8F\	8a 8f/	.	8F\	8a 8f/	-ści
*Xtremolo	*	*	*	*	*
=14	=14	=14	=14	=14	=14
*^	*	*	*	*	*
!	!LO:N:vis=2	!	!	!	!	!
2C\	8C\L	(16ccLL 16a/	.	8C/	(>16ccLL 16a/	dzień
.	.	16b-JJ 16g/)	.	.	16b-JJ 16g/)	.
.	8c 8B- 8E-\	(16aLL 16f#X/	.	8C/	(>16aLL 16f#X/	we-
.	.	16b-JJ 16g/)	.	.	16b-JJ 16g/)	.
.	8c 8B- 8E-\	4.g 4.en/	.	4.C/	4.g 4.en/	-se-
.	8cJ 8B- 8E-\	.	.	.	.	.
4ryy	8c 8B- 8E- 8C\	.	.	.	.	.
.	8r	8a 8fn/	.	8C/	8a 8fn/	-la
=15	=15	=15	=15	=15	=15	=15
4C/	8C\L	8b- 8g/	.	8C/	8b- 8g/	Za-
.	8cJ 8B- 8En\	4gg 4b-\	.	4C/	4gg 4b-^\	-jaś-
*rep	*rep	*	*	*	*	*
4C/	8C\L	.	.	.	.	.
.	8cJ 8B- 8E\	4b- 4g/	.	4C/	4b- 4g^>/	-niał
*Xrep	*Xrep	*	*	*	*	*
4C/	8C\L	.	.	.	.	.
.	8cJ 8B- 8G\	8een 8g\	.	8C/	8een 8g/	dla
*v	*v	*	*	*	*	*
=16	=16	=16	=16	=16	=16
*	*^	*	*	*^	*
8F 8FF/	(16gg/LL	8a\L	.	8F\	(16gg/LL	8a\	ca-
.	16ff/JJ)	.	.	.	16ff/JJ)	.	.
8cL 8A 8F\	(16een/LL	8a\J	.	8F\	(16een/LL	8a\	-łej
.	16ff/JJ)	.	.	.	16ff/JJ)	.	.
8c 8A 8F\	4cc/	4a\	.	4F\	4cc/	4a\	wio-
8cJ 8A 8F\	.	.	.	.	.	.	.
4c 4A 4F\	4a/	4f\	.	4F\	4a/	4f\	-ski
*	*v	*v	*	*	*v	*v	*
!!LO:LB:g=original
=17	=17	=17	=17	=17	=17
*^	*	*	*	*	*
4F/	8F\L	8ccL 8a'\	.	8F\	8cc 8a\	Do-
.	8cJ 8A\	(16bnL 16g#X\	.	8F\	(16bnLL 16g#X\	-bry
.	.	16ccJJ 16a\)	.	.	16ccJJ 16a\)	.
4F/	8F\L	(4.ff 4.a\	.	(4F\	(4.ff 4.a\	Pan
.	8cJ 8A\	.	.	.	.	.
4F/	8F\L	.	.	4AA/)	.	.
.	8enJ 8c\	8een 8cc\)	.	.	8een 8cc\)	.
=18	=18	=18	=18	=18	=18	=18
!LO:TX:t=P:problem:mixed beam	!	!	!	!	!	!
8BB-/L	2ryy	(16eenLL 16cc\	.	8BB-/	(16eenLL 16cc\	szczę-
.	.	16dd 16b-\)	.	.	16ddJJ 16b-\)	.
8dJ 8B-\	.	16cc#X 16a'\	.	16BB-/	(16cc#XLL 16a'\	-ścia
.	.	16ddJJ 16b-'\	.	16BB-/	16ddJJ 16b-'\)	u-
!LO:TX:t=P:problem:mixed beam	!	!	!	!	!	!
8BB-/L	.	4.b-X 4.gn/	.	4.BB-/	4.b-X 4.gn/	-dzie-
8dJ 8B-\	.	.	.	.	.	.
8BB-\L	4BB-/	.	.	.	.	.
8GJ 8D\	.	8g 8d/	.	8BB-/	8g 8d/	-la
=19	=19	=19	=19	=19	=19	=19
*	*	*	*	*	*^	*
4C/	8C\L	(16en/LL	.	8.C/	8.en/	8.en\	Jak
.	.	16d/	.	.	.	.	.
.	8B-J 8G\	16c/	.	.	.	.	.
.	.	16d/JJ	.	16C/	16cc 16e/	16ryy	wśród
*rep	*rep	*	*	*	*	*	*
4C/	8C\L	16e/LL	.	8C/	8cc 8e/	2ryy	dzie-
.	.	16f/	.	.	.	.	.
.	8B-J 8G\	16g/	.	8C/	8cc 8e/	.	-ci
.	.	16a/JJ)	.	.	.	.	.
*Xrep	*Xrep	*	*	*	*	*	*
*rep	*rep	*	*	*	*	*	*
!	!	!LO:TX:a:t=P:problem:jeden falujący łuk	!	!	!	!	!
4C/	8C\L	(16b-\LL	.	8C/	8cc 8e/	.	poś-
.	.	16cc\	.	.	.	.	.
.	8B-J 8G\	16dd\	.	8C/	8cc 8e/	.	-ród
.	.	16een\JJ)	.	.	.	.	.
*Xrep	*Xrep	*	*	*	*	*	*
*v	*v	*	*	*	*	*	*
=20	=20	=20	=20	=20	=20	=20
8A 8F\	8ff\	.	4F\	4f/	4f\	nas,
16r	16r	.	.	.	.	.
16F 16FF/	16ff 16a 16f\	.	.	.	.	.
4F 4FF/	4ff 4a 4f\	.	4r	4r	4ryy	.
(16En\LL	(16en/LL	.	4r	4r	4ryy	.
16F\	16f/	.	.	.	.	.
16A\	16a/	.	.	.	.	.
16c\JJ)	16cc/JJ)	.	.	.	.	.
*	*	*	*	*v	*v	*
!!LO:LB:g=original
=21	=21	=21	=21	=21	=21
8d\	4ee-X\	.	2.r	2.r	.
16r	.	.	.	.	.
16G-X 16GG-X/	.	.	.	.	.
4F 4FF/	4r	.	.	.	.
(16G#X\LL	(16g#X/LL	.	.	.	.
16A\)	16a/)	.	.	.	.
16c'\	16cc'/	.	.	.	.
16e-'\JJ	16ee-'/JJ	.	.	.	.
=22	=22	=22	=22	=22	=22
8f\	8ff\	.	2.r	2.r	.
16r	8r	.	.	.	.
16G-XLk 16GG-X/	.	.	.	.	.
8FJ 8FF/	4r	.	.	.	.
8r	.	.	.	.	.
4ryy	(16bn\LL	.	.	.	.
.	16cc\)	.	.	.	.
.	16ee-'\	.	.	.	.
.	16ff'\JJ	.	.	.	.
=23	=23	=23	=23	=23	=23
8F 8FF/	8aaL 8ee- 8cc\	.	2.r	2.r	.
!	!LO:TUP:a	!	!	!	!
8r	24ee-\L	.	.	.	.
.	24ff\	.	.	.	.
.	24aa\JJ	.	.	.	.
8F 8FF/	8cccL 8aa 8ee-\	.	.	.	.
!	!LO:TUP:a	!	!	!	!
8r	24ff\L	.	.	.	.
.	24aa\	.	.	.	.
.	24ccc\JJ	.	.	.	.
8F 8FF/	8eee-L 8ccc 8ff\	.	.	.	.
!	!LO:TUP:a	!	!	!	!
8r	24aaL 24ff\	.	.	.	.
.	24ccc 24aa\	.	.	.	.
.	24eee-JJ 24ccc\	.	.	.	.
=24	=24	=24	=24	=24	=24
8F 8FF/	8.ggg 8.eee- 8.ccc 8.aa\	.	2.r	2.r	.
8r	.	.	.	.	.
.	16fff 16ddd\	.	.	.	.
4r	16eee-LL 16ccc\	.	.	.	.
.	16ddd 16bb-\	.	.	.	.
.	16ccc 16aa\	.	.	.	.
.	16bb-JJ 16gg\	.	.	.	.
4r	16aaLL 16ff\	.	.	.	.
.	16gg 16ee-\	.	.	.	.
.	16ff 16dd\	.	.	.	.
!LO:TX:a:t=[segno]:problem:znak segno na kresce taktowej	!LO:TX:a:t=[segno]:problem:znak segno na kresce taktowej	!	!LO:TX:a:t=[segno]:problem:znak segno na kresce taktowej	!LO:TX:a:t=[segno]:problem:znak segno na kresce taktowej	!
!	!LO:TX:b:t=d'al \nsegno \nal fine \ne poi \nTrio	!	!	!	!
.	16ee-JJ 16cc\	.	.	.	.
!!LO:PB:g=original
=25||	=25||	=25||	=25||	=25||	=25||
!!!OMD: Trio.
*>D	*>D	*>D	*>D	*>D	*>D
*k[b-e-a-]	*k[b-e-a-]	*	*k[b-e-a-]	*k[b-e-a-]	*
*M3/4	*M3/4	*	*M3/4	*M3/4	*
!	!	!LO:DY:rj	!	!	!
(32qqBB-/LLL	(32qqB-/LLL	f	.	.	.
32qqC/	32qqc/	.	.	.	.
32qqD/JJJ	32qqd/JJJ	.	.	.	.
8E-\L)	8e-/L)	.	2.ryy	2.ryy	.
8G\J	8g/J	.	.	.	.
4.BB-/	4.B-/	.	.	.	.
8D\	8d/	.	.	.	.
=26	=26	=26	=26	=26	=26
8E-\L	8e-/L	.	2.ryy	2.ryy	.
8G\J	8g/J	.	.	.	.
4.B-\	4.b-/	.	.	.	.
8G\	8g/	.	.	.	.
=27	=27	=27	=27	=27	=27
8A-\L	8a-'/L	.	2.ryy	2.ryy	.
32c\LL	(32cc/LL	.	.	.	.
32B-\	32b-/	.	.	.	.
32A-\	32a-/	.	.	.	.
32G\JJJ	32g/JJJ	.	.	.	.
8F\L	8f/L)	.	.	.	.
32A-\LL	(32a-/LL	.	.	.	.
32G\	32g/	.	.	.	.
32F\	32f/	.	.	.	.
32E-\JJJ	32e-/JJJ	.	.	.	.
8D\L	8d/L)	.	.	.	.
32F\LL	(32f/LL	.	.	.	.
32E-\	32e-/	.	.	.	.
32D\	32d/	.	.	.	.
32C\JJJ	32c/JJJ	.	.	.	.
=28	=28	=28	=28	=28	=28
8BB-'/L	8B-'/L)	.	2.ryy	2.ryy	.
(8qC\	(8qc/	.	.	.	.
16BB-/L)	16B-/L)	.	.	.	.
16AAn'/JJ	16An'/JJ	.	.	.	.
8BB-/L	8B-'/L	.	.	.	.
(8qC\	(8qc/	.	.	.	.
16BB-/L)	16B-/L)	.	.	.	.
16AA'/J	16A'/J	.	.	.	.
8BB-'/J	8B-'/J	.	.	.	.
8r	8r	.	.	.	.
!!LO:LB:g=original
=29	=29	=29	=29	=29	=29
!	!	!	!	!LO:TX:a:i:t=Solo voce	!
8E- 8EE-/	8ee- 8g\	.	8E-\	8ee- 8g\	Niech-
4E- 4EE-/	4b- 4g/	.	4E-\	4b- 4g^\	-że
4E- 4EE-/	4gg 4b-\	.	4E-\	4gg 4b-^\	więc
!LO:TX:a:t=[segno]:problem:znak segno na kresce taktowej	!LO:TX:a:t=[segno]:problem:znak segno na kresce taktowej	!	!LO:TX:a:t=[segno]:problem:znak segno na kresce taktowej	!LO:TX:a:t=[segno]:problem:znak segno na kresce taktowej	!
8E- 8EE-/	8ee- 8g\	.	8E-\	8ee- 8g\	te
=30||	=30||	=30||	=30||	=30||	=30||
*>E	*>E	*>E	*>E	*>E	*>E
.	(8qgg 8qb-/	.	.	(8qgg 8qb-/	.
8B-L 8BB-\	8ffL 8a-\)	.	8BB-/	8ff 8a-\)	świę-
8B-J 8BB-\	8eenJ 8g\	.	8BB-/	8een 8g\	-te
4B- 4BB-\	4ff 4a-\	.	4BB-/	4ff 4a-\	go-
4B-\	4b-\	.	4BB-/	4b-\	-dy
=31	=31	=31	=31	=31	=31
*	*	*	*	*^	*
!LO:TX:t=P:problem:mixed beam	!	!	!	!	!	!
8BB-/L	(16a-\LL	.	8D\	16a-/LL	8a-\	Nie
.	16b-\)	.	.	16b-/JJ	.	.
8dJ 8B- 8A- 8F\	(16dd\	.	8BB-/	16dd/LL	16b-\LL	za-
.	16ff\JJ)	.	.	16ff/JJ	16dd\JJ	.
*tremolo	*	*	*	*	*	*
8dL 8B- 8A- 8F\	4.aa-\	.	4.F\	4.aa- 4.dd\	2ryy	-smu-
8d 8B- 8A- 8F\	.	.	.	.	.	.
8d 8B- 8A- 8F\	.	.	.	.	.	.
8dJ 8B- 8A- 8F\	8dd\	.	8BB-/	8cc 8a-\	.	-cą
*Xtremolo	*	*	*	*	*	*
=32	=32	=32	=32	=32	=32	=32
*^	*	*	*	*	*	*
!	!LO:N:vis=2	!	!	!	!	!	!
2E-/	8E-\L	(16ff\LL	.	8E-\	16ff/LL	8g\	świa-
.	.	16ee-\)	.	.	16ee-/JJ	.	.
.	8e- 8B- 8G\	(16dd\	.	8G\	16dd/LL	8b-\	-ta
.	.	16ee-\JJ)	.	.	16ee-/JJ	.	.
.	8e- 8B- 8G\	4b-\	.	4E-\	4b-/	4g\	tro-
.	8e-J 8B- 8G\	.	.	.	.	.	.
4ryy	4e- 4B- 4G 4E-\	4g/	.	4E-\	4g/	4g\	-ski
*v	*v	*	*	*	*v	*v	*
!!LO:LB:g=original
=33	=33	=33	=33	=33	=33
!	!	!	!	!LO:TX:b:i:t=Choro	!
!	!	!LO:DY:rj	!	!LO:TX:a:i:t=tutti	!
8GL 8GG\	8ee-'\L	f	8G\	8ee- 8b-\	Niech-
8e-J 8B- 8G\	(16ee-\L	.	8G\	8ee- 8b-\	-że
.	16dd\JJ)	.	.	.	.
*tremolo	*	*	*	*	*
8e-L 8B- 8G\	16ee-\LL	.	4G\	4ee- 4b-\	wzo-
.	16ff\	.	.	.	.
8e- 8B- 8G\	16gg\	.	.	.	.
.	16ff\JJ	.	.	.	.
8e- 8B- 8G\	16ee-\LL	.	4G\	4b-\	-rem
.	16dd\	.	.	.	.
8e-J 8B- 8G\	16cc\	.	.	.	.
.	16b-\JJ	.	.	.	.
*Xtremolo	*	*	*	*	*
=34	=34	=34	=34	=34	=34
8A-L 8AA-\	8cc\L	.	8A-\	8cc\	bę-
8f 8e- 8c 8A-\	16dd\L	.	8A-\	8cc\	-dą
.	16ee-\JJ	.	.	.	.
8f 8e- 8c 8A-\	16ff\LL	.	4A-\	4ff 4cc\	zgo-
.	16gg\	.	.	.	.
8fJ 8e- 8c 8A-\	16aa-\	.	.	.	.
.	16bb-\JJ	.	.	.	.
8f#XL 8e- 8c 8An\	4ccc\	.	4An\	4ff#X 4cc\	-dy
8f#J 8e- 8c 8A\	.	.	.	.	.
=35	=35	=35	=35	=35	=35
4g 4e- 4B-\	(16bb-\LL	.	8B-\	8gg 8ee-\	dla
.	16eee-\J)	.	.	.	.
.	8gg'\J	.	8G\	8ee- 8b-\	nas
4g 4e- 4B-\	(16gg\LL	.	4G\	4ee- 4b-\	wszy-
.	16bb-\J)	.	.	.	.
.	8ee-'\J	.	.	.	.
4g 4e- 4B-\	(16ee-\LL	.	4E-\	4b- 4g/	-stkich
.	16gg\J)	.	.	.	.
.	8b-'\J	.	.	.	.
*clefG2	*	*	*	*	*
=36	=36	=36	=36	=36	=36
*	*	*	*	*^	*
8a-L 8d 8B-/	(16ccc\LL	.	8BB-/	16cc/LL	8a-\	w każ-
.	16bb-\	.	.	16b-/JJ	.	.
8a-J 8d 8B-/	16aa-\	.	8BB-/	16aa-/LL	16f\LL	-dy
.	16ff\JJ)	.	.	16ff/JJ	16a-\JJ	.
8r	4ff 4a-\	.	4BB-/	(4ff/	(>4a-\	czas
*clefF4	*	*	*	*	*	*
8BB-L 8BBB-/	.	.	.	.	.	.
8E-J 8EE-/	8ee- 8g/	.	8E-\	8ee-/)	8g\)	.
!	!LO:TX:a:t=P:problem:fermata na kresce taktowej	!	!LO:TX:a:t=fine	!LO:TX:a:t=P:problem:fermata na kresce taktowej	!	!
8r	8r;	.	8r	8r;	8ryy	.
*	*	*	*	*v	*v	*
!!LO:LB:g=original
=37:|!	=37:|!	=37:|!	=37:|!	=37:|!	=37:|!
*>F	*>F	*>F	*>F	*>F	*>F
!	!	!LO:DY:rj	!	!	!
8.C/L	8gg 8ee- 8cc\	ff	2.ryy	2.ryy	.
.	8r	.	.	.	.
16BBn/Jk	.	.	.	.	.
8C\L	8gg 8ee- 8cc\	.	.	.	.
8E-\	8r	.	.	.	.
8G\	8gg 8ee- 8cc\	.	.	.	.
8c\J	8r	.	.	.	.
=38	=38	=38	=38	=38	=38
*	*^	*	*	*	*
8.F\L	8aa-/L	4cc\	.	2.ryy	2.ryy	.
.	16aa-/L	.	.	.	.	.
16En\Jk	16gg/JJ	.	.	.	.	.
8F\L	4.ff/	4.cc 4.a-\	.	.	.	.
8A-\	.	.	.	.	.	.
8c\	.	.	.	.	.	.
8F\J	8ccc 8aa- 8ff 8cc\	8ryy	.	.	.	.
*	*v	*v	*	*	*	*
=39	=39	=39	=39	=39	=39
8.G\L	8bbn 8gg 8ff 8dd\	.	2.ryy	2.ryy	.
.	8r	.	.	.	.
16F#X\Jk	.	.	.	.	.
*	*rep	*	*	*	*
8G\L	8bb 8gg 8ff 8dd\	.	.	.	.
8D\	8r	.	.	.	.
*	*Xrep	*	*	*	*
*	*rep	*	*	*	*
8BBn\	8bb 8gg 8ff 8dd\	.	.	.	.
8GG\J	8r	.	.	.	.
*	*Xrep	*	*	*	*
=40	=40	=40	=40	=40	=40
8.C/L	8cccL 8ee-\	.	2.ryy	2.ryy	.
.	16cccL 16ee-\	.	.	.	.
16BBn/Jk	16dddJJ 16ff\	.	.	.	.
8C\L	4.eee- 4.ccc 4.gg\	.	.	.	.
8E-\	.	.	.	.	.
8G\	.	.	.	.	.
8E-\J	8ccc 8gg\	.	.	.	.
!!LO:LB:g=original
=41	=41	=41	=41	=41	=41
8.C/L	8gg 8ee- 8cc\	.	2.ryy	8ryy	.
.	8r	.	.	8ryy	.
16BBn/Jk	.	.	.	.	.
*	*rep	*	*	*	*
8C\L	8gg 8ee- 8cc\	.	.	2ryy	.
8E-\	8r	.	.	.	.
*	*Xrep	*	*	*	*
*	*rep	*	*	*	*
8G\	8gg 8ee- 8cc\	.	.	.	.
8c\J	8r	.	.	.	.
*	*Xrep	*	*	*	*
=42	=42	=42	=42	=42	=42
*	*^	*	*	*	*
8.F\L	8aa-/L	4cc\	.	2.ryy	2.ryy	.
.	16aa-/L	.	.	.	.	.
16En\Jk	16gg/JJ	.	.	.	.	.
8F\L	4.ff/	4.cc 4.a-\	.	.	.	.
8A-\	.	.	.	.	.	.
8c\	.	.	.	.	.	.
8F\J	8ccc 8aa- 8ff 8cc\	8ryy	.	.	.	.
*	*v	*v	*	*	*	*
=43	=43	=43	=43	=43	=43
*^	*	*	*	*	*
8.G\L	2ryy	8bbn 8gg 8ff 8dd\	.	2.ryy	2.ryy	.
.	.	8r	.	.	.	.
16F#X\Jk	.	.	.	.	.	.
*	*	*rep	*	*	*	*
8G\L	.	8bb 8gg 8ff 8dd\	.	.	.	.
8D\	.	8r	.	.	.	.
*	*	*Xrep	*	*	*	*
*	*	*rep	*	*	*	*
8BBn\	4BBn/	8bb 8gg 8ff 8dd\	.	.	.	.
8GG\J	.	8r	.	.	.	.
*	*	*Xrep	*	*	*	*
*v	*v	*	*	*	*	*
=44	=44	=44	=44	=44	=44
8C\L	8ccc 8gg 8ee- 8cc\	.	2.ryy	2.ryy	.
16cL 16G 16E- 16C\	16ccLL 16g 16e-/	.	.	.	.
16cJJ 16G 16E- 16C\	16ccJJ 16g 16e-/	.	.	.	.
16cLL 16G 16E- 16C\	16ccLL 16g 16e-/	.	.	.	.
(16e-\	(16ee-/	.	.	.	.
16d\	16dd/	.	.	.	.
16c\JJ	16cc/JJ	.	.	.	.
16B-\LL	16b-/LL	.	.	.	.
16c\	16cc/	.	.	.	.
16B-\	16b-/	.	.	.	.
16A-\JJ)	16a-/JJ)	.	.	.	.
=45	=45	=45	=45	=45	=45
8G\L	8g/L	.	2.ryy	2.ryy	.
16cL 16G 16E- 16C\	16ccL 16g 16e-/	.	.	.	.
16cJJ 16G 16E- 16C\	16ccJJ 16g 16e-/	.	.	.	.
16cLL 16G 16E- 16C\	16ccLL 16g 16e-/	.	.	.	.
(16c\	(16cc/	.	.	.	.
16B-\	16b-/	.	.	.	.
16A-\JJ	16a-/JJ	.	.	.	.
16G\LL	16g/LL	.	.	.	.
16A-\	16a-/	.	.	.	.
16G\	16g/	.	.	.	.
16F\JJ)	16f/JJ)	.	.	.	.
!!LO:LB:g=original
=46	=46	=46	=46	=46	=46
8E-\L	8e-/L	.	2.r	2.r	.
16B-L 16G 16E-\	16ee-L 16b- 16g'>/	.	.	.	.
16B-JJ 16G 16E-\	16ee-JJ 16b- 16g'>/	.	.	.	.
8B- 8G 8E-\	16ee- 16b- 16g'>/	.	.	.	.
.	(16ggLL 16ee-\	.	.	.	.
8r	16ff 16dd\	.	.	.	.
.	16ee-JJ 16cc\	.	.	.	.
4r	16ddLL 16b-\	.	.	.	.
.	16ee- 16cc\	.	.	.	.
.	16dd 16b-\	.	.	.	.
.	16ccJJ 16a-\)	.	.	.	.
=47	=47	=47	=47	=47	=47
8r	8b-L 8g\	.	2.r	2.r	.
16B-LL 16G 16E-\	16ee-L 16b- 16g'\	.	.	.	.
16B-J 16G 16E-\	16ee-JJ 16b- 16g'\	.	.	.	.
8B-J 8G 8E-\	16ee-LL 16b- 16g'\	.	.	.	.
.	(16bb- 16gg\	.	.	.	.
8r	16aa- 16ff\	.	.	.	.
.	16ggJJ 16ee-\	.	.	.	.
4r	16ffLL 16dd\	.	.	.	.
.	16gg 16ee-\	.	.	.	.
.	16ff 16dd\	.	.	.	.
.	16ee-JJ 16cc\	.	.	.	.
=48	=48	=48	=48	=48	=48
8BB-\L	16ddLL 16b-\)	.	2.r	2.r	.
.	(16gg 16ee-\	.	.	.	.
8B-J 8A- 8D\	16ff 16dd\	.	.	.	.
.	16ee-JJ 16cc\	.	.	.	.
*rep	*	*	*	*	*
8BB-\L	16ddLL 16b-\	.	.	.	.
.	16ee- 16cc\	.	.	.	.
8B-J 8A- 8D\	16dd 16b-\	.	.	.	.
.	16ccJJ 16a-\	.	.	.	.
*Xrep	*	*	*	*	*
*rep	*	*	*	*	*
8BB-\L	16b-LL 16g/	.	.	.	.
.	16cc 16a-/	.	.	.	.
8B-J 8A- 8D\	16b- 16g/	.	.	.	.
.	16a-JJ 16f/)	.	.	.	.
*Xrep	*	*	*	*	*
=49	=49	=49	=49	=49	=49
.	(8qg 8qe-/	.	.	.	.
8E- 8EE-/	8ee- 8g/)	.	8E-\	8ee- 8g\	Niech-
4E- 4EE-/	4b- 4g/	.	4E-\	4b- 4g\	-że
4E- 4EE-/	4gg 4b-\	.	4E-\	4gg 4b-\	więc
!LO:TX:a:t=[segno]:problem:znak segno na kresce taktowej	!LO:TX:a:t=[segno]:problem:znak segno na kresce taktowej	!	!LO:TX:a:t=[segno]:problem:znak segno na kresce taktowej	!LO:TX:a:t=[segno]:problem:znak segno na kresce taktowej	!
!	!	!	!	!LO:TX:b:t=d'al segno\nal fine [fermata]\net da capo\nPolonez al \nfine e poi la \nCoda	!
8E- 8EE-/	8ee- 8g/	.	8E-\	8ee- 8g\	te
!!LO:PB:g=original
=50||	=50||	=50||	=50||	=50||	=50||
!!!OMD: Coda.
*>G	*>G	*>G	*>G	*>G	*>G
*k[b-e-]	*k[b-e-]	*	*k[b-e-]	*k[b-e-]	*
8fL 8Bn 8G\	(16aa\LL	.	2.ryy	2.ryy	.
.	16gg\	.	.	.	.
8fJ 8B 8G\	16ff\)	.	.	.	.
.	32r	.	.	.	.
.	32dd\JJk|	.	.	.	.
8r	(4ff (4bn\	.	.	.	.
8GL 8GG\	.	.	.	.	.
8cJ 8C\	8ee- 8cc\))	.	.	.	.
8r	8r	.	.	.	.
=51	=51	=51	=51	=51	=51
.	8qdd/	.	.	.	.
8cL 8G 8E-\	(16ddd\LL	.	2.ryy	2.ryy	.
.	16ccc\)	.	.	.	.
8c#XJ 8G 8En\	16bb-'\	.	.	.	.
.	16gg'\JJ	.	.	.	.
8d 8B- 8F\	8ff\L	.	.	.	.
16B-\LL	16b-'\L	.	.	.	.
16d\JJ	16dd'\JJ	.	.	.	.
8f\L	8ff'\L	.	.	.	.
16B-\L	16b-'\L	.	.	.	.
16d\JJ	16dd'\JJ	.	.	.	.
=52	=52	=52	=52	=52	=52
4f\	4ff'\	.	2.ryy	2.ryy	.
8r	8r	.	.	.	.
8fL 8F\	(16ff\LL	.	.	.	.
.	32gg\L	.	.	.	.
.	32ff\JJJ)	.	.	.	.
8e- 8E-\	8ee-\L	.	.	.	.
8cJ 8C\	8cc'\J	.	.	.	.
!!LO:LB:g=original
=53	=53	=53	=53	=53	=53
8B- 8BB-\	8b-\	.	2.ryy	2.ryy	.
8r	8r	.	.	.	.
4B- 4F 4BB-\	4bb- 4dd 4b-\	.	.	.	.
4r	4r	.	.	.	.
==	==	==	==	==	==
*-	*-	*-	*-	*-	*-
!!!system-decoration: s1,s2{(s3,s4)}
!!!RDF**kern: > = above
!!!RDF**kern: | = vertical stroke
!!!ENC: Marta Lawrence
!!!END: 2021-06-14
!!!ENC: Andrzej Gręziak
!!!END: 2021-06-05
